X:250
T:Maiden Sat A Weeping
R:
M:3/4
K:EMin
EG | B2 B2 Bc | BG E2 B2 | E3 E GA |
B4 e2 | d2 c2 e2 |
M:4/4
Bd d2- d2-dB|
M:3/4
B2 G2 AG | FE- E2 B2 | G2 AG FG | E4 ||
GB | c3 d cB | A3 G FD | E4 G2 | E4 ||
